X:553
T: "Liebeskummer"
N: Z1233
O: Europa, Mitteleuropa, Oesterreich
R: Liebes - Lied, verlassene Liebe
M: 3/4
L: 1/8
K: G
 | BdgG4 | DGGBBd | d3cF2
AcfF4 | DFF2F2 | d4
dc | BdgG4 | DGGBBd | d3cF2
AcfF4 | DFedcF | G4z2

